X: 2006
T: O SHE'S COMING
Q: "Reel."
R: Reel.
%R: reel
B: James Kerr "Merry Melodies" v.2 p.4 #6
Z: 2016 John Chambers <jc:trillian.mit.edu>
M: C
L: 1/8
K: A
[|\
ve/e/e (ea) f2(fa) | e/e/e (ed) cAAc |\
e/e/e (ef) =g2(gd) | B2(BA) B=GGB |\
ve/e/e (ea) f2(fa) | e/e/e (ed) cAAc |\
d2fd c2ec | B2(BA) B=GGB |:\
efed c2(Ac) |
efed cAAc |\
efed c2(Ac) | B2(BA) B=GGB |\
efed c2(Ac) | efae cAAc |\
[1 d2fd c2ec | B2(BA) B=GGB :|\
[2 d/d/d (fd) c/c/c (ec) | B/B/B (cA) B=GGB |]

%%sep 1 1 500
%%sep 1 1 500

